assets/svg/018-swimmer.svg

<?xml version="1.0" encoding="iso-8859-1"?>
<!-- Generator: Adobe Illustrator 16.0.0, SVG Export Plug-In . SVG Version: 6.00 Build 0)  -->
<!DOCTYPE svg PUBLIC "-//W3C//DTD SVG 1.1//EN" "http://www.w3.org/Graphics/SVG/1.1/DTD/svg11.dtd">
<svg version="1.1" id="Capa_1" xmlns="http://www.w3.org/2000/svg" xmlns:xlink="http://www.w3.org/1999/xlink" x="0px" y="0px"
	 width="605.482px" height="605.482px" viewBox="0 0 605.482 605.482" style="enable-background:new 0 0 605.482 605.482;"
	 xml:space="preserve">
<g>
	<path id="Fill-20" d="M529.643,355.606c-38.715,14.116-81.563-5.842-95.671-44.572
		c-14.115-38.73,5.834-81.562,44.564-95.679c38.724-14.115,81.563,5.834,95.679,44.564
		C588.331,298.651,568.381,341.491,529.643,355.606L529.643,355.606z M103.523,386.23c9.307-8.146,23.352-20.442,53.809-20.442
		c30.457,0,44.493,12.296,53.792,20.435c6.216,5.452,8.083,7.09,18.909,7.09c10.833,0,12.701-1.638,18.9-7.082
		c9.307-8.146,23.352-20.442,53.808-20.442c30.457,0,44.485,12.296,53.793,20.435c6.199,5.452,8.083,7.09,18.908,7.09
		s12.709-1.638,18.9-7.082c5.222-4.562,12.065-10.38,22.326-14.656c0.223-13.933-4.006-31.713-17.033-50.652
		c-6.827-9.92-65.61-92.214-65.61-92.214l71.763-56.621c11.382-8.981,13.329-25.481,4.348-36.855
		c-8.989-11.382-25.474-13.305-36.855-4.348L281.91,202.98c-10.984,8.663-13.233,24.417-5.126,35.814l51.821,72.819l-198.94,48.356
		c-18.368,4.467-32.5,17.128-39.732,33.111C96.267,392.51,98.524,390.618,103.523,386.23L103.523,386.23z M565.941,416.123
		c7.034-6.144,12.089-10.603,27.619-10.603c6.597,0,11.922-5.325,11.922-11.922c0-6.581-5.325-11.922-11.922-11.922
		c-24.479,0-34.932,9.155-43.325,16.516c-7.312,6.391-12.589,11.008-29.367,11.008c-16.795,0-22.072-4.617-29.385-11.023
		c-8.393-7.353-18.828-16.5-43.324-16.5c-24.48,0-34.932,9.147-43.325,16.5c-7.312,6.406-12.59,11.023-29.376,11.023
		c-16.794,0-22.063-4.617-29.376-11.023c-8.401-7.353-18.845-16.5-43.325-16.5c-24.488,0-34.932,9.147-43.333,16.5
		c-7.296,6.406-12.582,11.023-29.376,11.023c-16.794,0-22.071-4.617-29.376-11.023c-8.401-7.353-18.845-16.5-43.325-16.5
		s-34.932,9.147-43.333,16.5c-7.296,6.406-12.574,11.023-29.376,11.023c-16.794,0-22.072-4.617-29.376-11.023
		c-8.417-7.345-18.861-16.5-43.341-16.5C5.341,381.677,0,387.018,0,393.599c0,6.597,5.341,11.922,11.922,11.922
		c15.515,0,20.593,4.451,27.611,10.603c8.616,7.543,19.338,16.922,45.089,16.922s36.474-9.379,45.089-16.922
		c7.026-6.151,12.105-10.603,27.62-10.603c15.514,0,20.593,4.451,27.611,10.603c8.616,7.543,19.337,16.922,45.089,16.922
		c25.751,0,36.474-9.379,45.089-16.922c7.026-6.151,12.097-10.603,27.619-10.603c15.515,0,20.578,4.451,27.611,10.603
		c8.616,7.543,19.338,16.922,45.09,16.922c25.743,0,36.474-9.379,45.089-16.922c7.034-6.151,12.089-10.603,27.62-10.603
		c15.53,0,20.601,4.451,27.627,10.603c8.607,7.543,19.33,16.922,45.09,16.922C546.611,433.045,557.333,423.674,565.941,416.123
		L565.941,416.123z M565.941,416.123c7.034-6.144,12.089-10.603,27.619-10.603c6.597,0,11.922-5.325,11.922-11.922
		c0-6.581-5.325-11.922-11.922-11.922c-24.479,0-34.932,9.155-43.325,16.516c-7.312,6.391-12.589,11.008-29.367,11.008
		c-16.795,0-22.072-4.617-29.385-11.023c-8.393-7.353-18.828-16.5-43.324-16.5c-24.48,0-34.932,9.147-43.325,16.5
		c-7.312,6.406-12.59,11.023-29.376,11.023c-16.794,0-22.063-4.617-29.376-11.023c-8.401-7.353-18.845-16.5-43.325-16.5
		c-24.488,0-34.932,9.147-43.333,16.5c-7.296,6.406-12.582,11.023-29.376,11.023c-16.794,0-22.071-4.617-29.376-11.023
		c-8.401-7.353-18.845-16.5-43.325-16.5s-34.932,9.147-43.333,16.5c-7.296,6.406-12.574,11.023-29.376,11.023
		c-16.794,0-22.072-4.617-29.376-11.023c-8.417-7.345-18.861-16.5-43.341-16.5C5.341,381.677,0,387.018,0,393.599
		c0,6.597,5.341,11.922,11.922,11.922c15.515,0,20.593,4.451,27.611,10.603c8.616,7.543,19.338,16.922,45.089,16.922
		s36.474-9.379,45.089-16.922c7.026-6.151,12.105-10.603,27.62-10.603c15.514,0,20.593,4.451,27.611,10.603
		c8.616,7.543,19.337,16.922,45.089,16.922c25.751,0,36.474-9.379,45.089-16.922c7.026-6.151,12.097-10.603,27.619-10.603
		c15.515,0,20.578,4.451,27.611,10.603c8.616,7.543,19.338,16.922,45.09,16.922c25.743,0,36.474-9.379,45.089-16.922
		c7.034-6.151,12.089-10.603,27.62-10.603c15.53,0,20.601,4.451,27.627,10.603c8.607,7.543,19.33,16.922,45.09,16.922
		C546.611,433.045,557.333,423.674,565.941,416.123L565.941,416.123z M565.941,463.318c7.034-6.159,12.089-10.595,27.619-10.595
		c6.597,0,11.922-5.341,11.922-11.922s-5.325-11.922-11.922-11.922c-24.479,0-34.932,9.132-43.325,16.492
		c-7.296,6.398-12.573,11.016-29.367,11.016c-16.795,0-22.072-4.617-29.385-11.016c-8.393-7.36-18.845-16.492-43.324-16.492
		c-24.48,0-34.932,9.132-43.325,16.492c-7.312,6.398-12.59,11.016-29.376,11.016c-16.794,0-22.063-4.617-29.376-11.016
		c-8.401-7.36-18.845-16.492-43.325-16.492c-24.488,0-34.932,9.132-43.333,16.492c-7.296,6.398-12.582,11.016-29.376,11.016
		c-16.794,0-22.071-4.617-29.376-11.016c-8.401-7.36-18.845-16.492-43.325-16.492s-34.932,9.132-43.333,16.492
		c-7.296,6.398-12.574,11.016-29.376,11.016c-16.794,0-22.072-4.617-29.376-11.016c-8.401-7.36-18.845-16.492-43.325-16.492
		c-6.581,0-11.922,5.341-11.922,11.922s5.341,11.922,11.922,11.922c15.515,0,20.594,4.436,27.612,10.587
		c8.616,7.543,19.337,16.922,45.089,16.922c25.751,0,36.474-9.379,45.081-16.922c7.034-6.151,12.113-10.587,27.627-10.587
		s20.593,4.436,27.612,10.587c8.616,7.543,19.337,16.922,45.089,16.922c25.752,0,36.474-9.379,45.082-16.922
		c7.034-6.151,12.105-10.587,27.627-10.587c15.515,0,20.578,4.436,27.62,10.587c8.607,7.543,19.329,16.922,45.081,16.922
		c25.744,0,36.474-9.379,45.09-16.922c7.033-6.151,12.089-10.587,27.619-10.587s20.602,4.436,27.627,10.587
		c8.616,7.543,19.33,16.922,45.09,16.922C546.611,480.232,557.333,470.854,565.941,463.318L565.941,463.318z"/>
</g>
</svg>

<?xml version="1.0" encoding="UTF-8" standalone="no"?>
<!DOCTYPE svg PUBLIC "-//W3C//DTD SVG 1.1//EN" "http://www.w3.org/Graphics/SVG/1.1/DTD/svg11.dtd">
<svg width="100%" height="100%" viewBox="0 0 606 369" version="1.1" xmlns="http://www.w3.org/2000/svg" xmlns:xlink="http://www.w3.org/1999/xlink" xml:space="preserve" style="fill-rule:evenodd;clip-rule:evenodd;stroke-linejoin:round;stroke-miterlimit:1.41421;">
    <g id="Artboard1" transform="matrix(1,0,0,1,-2.10939,1.28376)">
        <rect x="2.109" y="-1.284" width="605.66" height="368.01" style="fill:none;"/>
        <clipPath id="_clip1">
            <rect x="2.109" y="-1.284" width="605.66" height="368.01"/>
        </clipPath>
        <g clip-path="url(#_clip1)">
            <g id="Fill-20" transform="matrix(1,0,0,1,0.109389,-125.172)">
                <path d="M529.643,355.606C490.928,369.722 448.08,349.764 433.972,311.034C419.857,272.304 439.806,229.472 478.536,215.355C517.26,201.24 560.099,221.189 574.215,259.919C588.331,298.651 568.381,341.491 529.643,355.606ZM103.523,386.23C112.83,378.084 126.875,365.788 157.332,365.788C187.789,365.788 201.825,378.084 211.124,386.223C217.34,391.675 219.207,393.313 230.033,393.313C240.866,393.313 242.734,391.675 248.933,386.231C258.24,378.085 272.285,365.789 302.741,365.789C333.198,365.789 347.226,378.085 356.534,386.224C362.733,391.676 364.617,393.314 375.442,393.314C386.267,393.314 388.151,391.676 394.342,386.232C399.564,381.67 406.407,375.852 416.668,371.576C416.891,357.643 412.662,339.863 399.635,320.924C392.808,311.004 334.025,228.71 334.025,228.71L405.788,172.089C417.17,163.108 419.117,146.608 410.136,135.234C401.147,123.852 384.662,121.929 373.281,130.886L281.91,202.98C270.926,211.643 268.677,227.397 276.784,238.794L328.605,311.613L129.665,359.969C111.297,364.436 97.165,377.097 89.933,393.08C96.267,392.51 98.524,390.618 103.523,386.23ZM565.941,416.123C572.975,409.979 578.03,405.52 593.56,405.52C600.157,405.52 605.482,400.195 605.482,393.598C605.482,387.017 600.157,381.676 593.56,381.676C569.081,381.676 558.628,390.831 550.235,398.192C542.923,404.583 537.646,409.2 520.868,409.2C504.073,409.2 498.796,404.583 491.483,398.177C483.09,390.824 472.655,381.677 448.159,381.677C423.679,381.677 413.227,390.824 404.834,398.177C397.522,404.583 392.244,409.2 375.458,409.2C358.664,409.2 353.395,404.583 346.082,398.177C337.681,390.824 327.237,381.677 302.757,381.677C278.269,381.677 267.825,390.824 259.424,398.177C252.128,404.583 246.842,409.2 230.048,409.2C213.254,409.2 207.977,404.583 200.672,398.177C192.271,390.824 181.827,381.677 157.347,381.677C132.867,381.677 122.415,390.824 114.014,398.177C106.718,404.583 101.44,409.2 84.638,409.2C67.844,409.2 62.566,404.583 55.262,398.177C46.845,390.832 36.401,381.677 11.921,381.677C5.341,381.677 0,387.018 0,393.599C0,400.196 5.341,405.521 11.922,405.521C27.437,405.521 32.515,409.972 39.533,416.124C48.149,423.667 58.871,433.046 84.622,433.046C110.373,433.046 121.096,423.667 129.711,416.124C136.737,409.973 141.816,405.521 157.331,405.521C172.845,405.521 177.924,409.972 184.942,416.124C193.558,423.667 204.279,433.046 230.031,433.046C255.782,433.046 266.505,423.667 275.12,416.124C282.146,409.973 287.217,405.521 302.739,405.521C318.254,405.521 323.317,409.972 330.35,416.124C338.966,423.667 349.688,433.046 375.44,433.046C401.183,433.046 411.914,423.667 420.529,416.124C427.563,409.973 432.618,405.521 448.149,405.521C463.679,405.521 468.75,409.972 475.776,416.124C484.383,423.667 495.106,433.046 520.866,433.046C546.611,433.045 557.333,423.674 565.941,416.123ZM565.941,416.123C572.975,409.979 578.03,405.52 593.56,405.52C600.157,405.52 605.482,400.195 605.482,393.598C605.482,387.017 600.157,381.676 593.56,381.676C569.081,381.676 558.628,390.831 550.235,398.192C542.923,404.583 537.646,409.2 520.868,409.2C504.073,409.2 498.796,404.583 491.483,398.177C483.09,390.824 472.655,381.677 448.159,381.677C423.679,381.677 413.227,390.824 404.834,398.177C397.522,404.583 392.244,409.2 375.458,409.2C358.664,409.2 353.395,404.583 346.082,398.177C337.681,390.824 327.237,381.677 302.757,381.677C278.269,381.677 267.825,390.824 259.424,398.177C252.128,404.583 246.842,409.2 230.048,409.2C213.254,409.2 207.977,404.583 200.672,398.177C192.271,390.824 181.827,381.677 157.347,381.677C132.867,381.677 122.415,390.824 114.014,398.177C106.718,404.583 101.44,409.2 84.638,409.2C67.844,409.2 62.566,404.583 55.262,398.177C46.845,390.832 36.401,381.677 11.921,381.677C5.341,381.677 0,387.018 0,393.599C0,400.196 5.341,405.521 11.922,405.521C27.437,405.521 32.515,409.972 39.533,416.124C48.149,423.667 58.871,433.046 84.622,433.046C110.373,433.046 121.096,423.667 129.711,416.124C136.737,409.973 141.816,405.521 157.331,405.521C172.845,405.521 177.924,409.972 184.942,416.124C193.558,423.667 204.279,433.046 230.031,433.046C255.782,433.046 266.505,423.667 275.12,416.124C282.146,409.973 287.217,405.521 302.739,405.521C318.254,405.521 323.317,409.972 330.35,416.124C338.966,423.667 349.688,433.046 375.44,433.046C401.183,433.046 411.914,423.667 420.529,416.124C427.563,409.973 432.618,405.521 448.149,405.521C463.679,405.521 468.75,409.972 475.776,416.124C484.383,423.667 495.106,433.046 520.866,433.046C546.611,433.045 557.333,423.674 565.941,416.123ZM565.941,463.318C572.975,457.159 578.03,452.723 593.56,452.723C600.157,452.723 605.482,447.382 605.482,440.801C605.482,434.22 600.157,428.879 593.56,428.879C569.081,428.879 558.628,438.011 550.235,445.371C542.939,451.769 537.662,456.387 520.868,456.387C504.073,456.387 498.796,451.77 491.483,445.371C483.09,438.011 472.638,428.879 448.159,428.879C423.679,428.879 413.227,438.011 404.834,445.371C397.522,451.769 392.244,456.387 375.458,456.387C358.664,456.387 353.395,451.77 346.082,445.371C337.681,438.011 327.237,428.879 302.757,428.879C278.269,428.879 267.825,438.011 259.424,445.371C252.128,451.769 246.842,456.387 230.048,456.387C213.254,456.387 207.977,451.77 200.672,445.371C192.271,438.011 181.827,428.879 157.347,428.879C132.867,428.879 122.415,438.011 114.014,445.371C106.718,451.769 101.44,456.387 84.638,456.387C67.844,456.387 62.566,451.77 55.262,445.371C46.861,438.011 36.417,428.879 11.937,428.879C5.356,428.879 0.015,434.22 0.015,440.801C0.015,447.382 5.356,452.723 11.937,452.723C27.452,452.723 32.531,457.159 39.549,463.31C48.165,470.853 58.886,480.232 84.638,480.232C110.389,480.232 121.112,470.853 129.719,463.31C136.753,457.159 141.832,452.723 157.346,452.723C172.86,452.723 177.939,457.159 184.958,463.31C193.574,470.853 204.295,480.232 230.047,480.232C255.799,480.232 266.521,470.853 275.129,463.31C282.163,457.159 287.234,452.723 302.756,452.723C318.271,452.723 323.334,457.159 330.376,463.31C338.983,470.853 349.705,480.232 375.457,480.232C401.201,480.232 411.931,470.853 420.547,463.31C427.58,457.159 432.636,452.723 448.166,452.723C463.696,452.723 468.768,457.159 475.793,463.31C484.409,470.853 495.123,480.232 520.883,480.232C546.611,480.232 557.333,470.854 565.941,463.318Z" style="fill-rule:nonzero;"/>
            </g>
        </g>
    </g>
</svg>
